X: 1
T: the Whirlwind
C: Andy Imbrie
B: RSCDS 52-12
R: reel
Z: 2019 John Chambers <jc:trillian.mit.edu>
N: Dance for Trip to Timber Ridge [RSCDS 52-12]
M: C|
L: 1/8
K: A
AB |:\
"A"cAAe AAcA | "D"dFFE "Bm"FGAF |\
[1 "E"GEEA "E7"EEBE | "A"ABcA "E7"BGFE :|\
[2 "E"GEAE "E7"BEGE | "A"Ac"E7"BG "A"A2 :|
cd |\
"A"eAAa AAeA | "D"fddc "Bm"Bcdf | "E"geea "E7"eebe | "A"agab "E7"afed |
"A"eAAa AAeA | "D"fddc "Bm"Bcdf | "E"geae "E7"bege | "A"ag"E7"ab "A"e2 ||
cd |\
"A"eAAa AAeA | "D"fddc "Bm"Bcdf | "E"geea "E7"eebe | "A"agab "E7"afed |
"A"eA ~A2 "A7"GA=GA | "D"Fddc "Bm"Bcda | "E"geae "E7"bege | "A"ag"E7"ab "A"e2 |]
